images/vk.svg

<svg width="24" height="15" fill="none" xmlns="http://www.w3.org/2000/svg"><path fill-rule="evenodd" clip-rule="evenodd" d="M23.45 1.448c.166-.546 0-.948-.795-.948H20.03c-.668 0-.976.347-1.143.73 0 0-1.335 3.196-3.226 5.272-.612.602-.89.793-1.224.793-.167 0-.418-.191-.418-.738V1.448c0-.656-.184-.948-.74-.948H9.151c-.417 0-.668.304-.668.593 0 .621.946.765 1.043 2.513v3.798c0 .833-.153.984-.487.984-.89 0-3.055-3.211-4.34-6.885C4.45.788 4.198.5 3.527.5H.9c-.75 0-.9.347-.9.73 0 .682.89 4.07 4.145 8.551 2.17 3.06 5.225 4.719 8.008 4.719 1.669 0 1.875-.368 1.875-1.003v-2.313c0-.737.158-.884.687-.884.39 0 1.057.192 2.615 1.667 1.78 1.749 2.073 2.533 3.075 2.533h2.625c.75 0 1.126-.368.91-1.096-.238-.724-1.088-1.775-2.215-3.022-.612-.71-1.53-1.475-1.809-1.858-.389-.491-.278-.71 0-1.147 0 0 3.2-4.426 3.533-5.929h.001Z" fill="#83B3D3"/></svg>

<svg width="24" height="15" viewBox="0 0 24 15" fill="none" xmlns="http://www.w3.org/2000/svg">
<path fill-rule="evenodd" clip-rule="evenodd" d="M23.45 1.448C23.616 0.902 23.45 0.5 22.655 0.5H20.03C19.362 0.5 19.054 0.847 18.887 1.23C18.887 1.23 17.552 4.426 15.661 6.502C15.049 7.104 14.771 7.295 14.437 7.295C14.27 7.295 14.019 7.104 14.019 6.557V1.448C14.019 0.792 13.835 0.5 13.279 0.5H9.151C8.734 0.5 8.483 0.804 8.483 1.093C8.483 1.714 9.429 1.858 9.526 3.606V7.404C9.526 8.237 9.373 8.388 9.039 8.388C8.149 8.388 5.984 5.177 4.699 1.503C4.45 0.788 4.198 0.5 3.527 0.5H0.9C0.15 0.5 0 0.847 0 1.23C0 1.912 0.89 5.3 4.145 9.781C6.315 12.841 9.37 14.5 12.153 14.5C13.822 14.5 14.028 14.132 14.028 13.497V11.184C14.028 10.447 14.186 10.3 14.715 10.3C15.105 10.3 15.772 10.492 17.33 11.967C19.11 13.716 19.403 14.5 20.405 14.5H23.03C23.78 14.5 24.156 14.132 23.94 13.404C23.702 12.68 22.852 11.629 21.725 10.382C21.113 9.672 20.195 8.907 19.916 8.524C19.527 8.033 19.638 7.814 19.916 7.377C19.916 7.377 23.116 2.951 23.449 1.448H23.45Z" fill="#83B3D3"/>
</svg>
